public/assets/signin/edit.svg

<svg width="24" height="24" viewBox="0 0 24 24" fill="none" xmlns="http://www.w3.org/2000/svg">
<g id="24/ edit">
<g id="Vector">
<path fill-rule="evenodd" clip-rule="evenodd" d="M14.6063 3.25C14.8051 3.25 14.9957 3.32889 15.1363 3.46934L17.9643 6.29834C18.1048 6.43897 18.1837 6.62959 18.1837 6.82834C18.1837 7.02709 18.1048 7.21771 17.9643 7.35834L8.77234 16.5503C8.67813 16.6448 8.56042 16.7125 8.43134 16.7463L4.60334 17.7463C4.47677 17.7794 4.34377 17.7787 4.21753 17.7444C4.0913 17.7101 3.97622 17.6434 3.88373 17.5509C3.79124 17.4585 3.72455 17.3434 3.69027 17.2171C3.65599 17.0909 3.65533 16.9579 3.68834 16.8313L4.68834 13.0013C4.72205 12.8727 4.78935 12.7554 4.88334 12.6613L14.0763 3.46934C14.217 3.32889 14.4076 3.25 14.6063 3.25ZM14.6063 5.06034L6.08734 13.5783L5.46234 15.9713L7.85534 15.3463L16.3733 6.82734L14.6063 5.06034Z" fill="#07745E"/>
<path d="M3.46967 19.4697C3.61032 19.329 3.80109 19.25 4 19.25H19C19.1989 19.25 19.3897 19.329 19.5303 19.4697C19.671 19.6103 19.75 19.8011 19.75 20C19.75 20.1989 19.671 20.3897 19.5303 20.5303C19.3897 20.671 19.1989 20.75 19 20.75H4C3.80109 20.75 3.61032 20.671 3.46967 20.5303C3.32902 20.3897 3.25 20.1989 3.25 20C3.25 19.8011 3.32902 19.6103 3.46967 19.4697Z" fill="#07745E"/>
</g>
</g>
</svg>

<svg width="24" height="24" fill="none" xmlns="http://www.w3.org/2000/svg"><g fill="#07745E"><path fill-rule="evenodd" clip-rule="evenodd" d="M14.606 3.25a.75.75 0 0 1 .53.22l2.828 2.828a.75.75 0 0 1 0 1.06L8.772 16.55a.75.75 0 0 1-.34.196l-3.829 1a.749.749 0 0 1-.915-.915l1-3.83a.75.75 0 0 1 .195-.34l9.193-9.192a.75.75 0 0 1 .53-.219Zm0 1.81-8.519 8.518-.625 2.393 2.393-.625 8.518-8.519-1.767-1.767Z"/><path d="M3.47 19.47a.75.75 0 0 1 .53-.22h15a.75.75 0 1 1 0 1.5H4a.75.75 0 0 1-.53-1.28Z"/></g></svg>
